X: 1
T: Jack MacIntyre's Hall
R: reel
M: 4/4
L: 1/8
K: C
C: Gordon F. MacQuarrie
A|GEcG ABcA| GAGE FDDA | GEcG ABcd | ea{a}ae eccA |
|GEcG ABcA| GECE FDDA | GEcG ABcd| abfa ecc :||
e|gage cegd |  ea{a}ae edde | gage cegd | eaga ecce|
 gage degd |  ea{a}ae edde |gbab gaeg | BGcG ECC |]

